src/standard/confidential.svg

<svg xmlns="http://www.w3.org/2000/svg" viewBox="0 0 36 36">
  <path d="M32.52 17.65a17.6 17.6 0 0 0-20.58-6.59l-4.5-4.5c-.56-.56-1.44.32-.88.88l4.77 4.77 17.23 17.23a.62.62 0 0 0 .88-.88l-4.13-4.13a17.49 17.49 0 0 0 7.21-6.08.64.64 0 0 0 0-.7ZM20.79 19.9l-4.69-4.69a3.38 3.38 0 0 1 4.69 4.69Zm3.58 3.58-2.7-2.69a4.61 4.61 0 0 0-6.46-6.46L12.92 12a16.35 16.35 0 0 1 18.32 6 16.29 16.29 0 0 1-6.87 5.48ZM21 24.51A16.36 16.36 0 0 1 4.76 18a16.62 16.62 0 0 1 4.68-4.36.62.62 0 1 0-.66-1.06 17.91 17.91 0 0 0-5.3 5.07.64.64 0 0 0 0 .7 17.64 17.64 0 0 0 17.76 7.39.63.63 0 0 0-.24-1.23Z"/>
  <path d="M18.62 22a.61.61 0 0 0-.62-.62A3.39 3.39 0 0 1 14.62 18a.62.62 0 0 0-1.24 0A4.62 4.62 0 0 0 18 22.62a.61.61 0 0 0 .62-.62Z"/>
</svg>

<svg id="acd19639-8d42-48cb-98dd-9cb037913a12" data-name="Icon" xmlns="http://www.w3.org/2000/svg" viewBox="0 0 36 36">
  <title>Confidential icon - Black</title>
<desc>share, view, information, restricted, permissions, NDA, secret, media and documents</desc>
<metadata><?xpacket begin="﻿" id="W5M0MpCehiHzreSzNTczkc9d"?>
<x:xmpmeta xmlns:x="adobe:ns:meta/" x:xmptk="Adobe XMP Core 8.0-c001 1.000000, 0000/00/00-00:00:00        ">
   <rdf:RDF xmlns:rdf="http://www.w3.org/1999/02/22-rdf-syntax-ns#">
      <rdf:Description rdf:about=""
            xmlns:xmp="http://ns.adobe.com/xap/1.0/"
            xmlns:dc="http://purl.org/dc/elements/1.1/"
            xmlns:cq="http://www.day.com/jcr/cq/1.0"
            xmlns:tiff="http://ns.adobe.com/tiff/1.0/">
         <xmp:rhcc-effective-on>2023-12-08T17:36:55.646Z</xmp:rhcc-effective-on>
         <xmp:rhcc-metadata-complete-moderator>pending</xmp:rhcc-metadata-complete-moderator>
         <xmp:rhcc-translation-id>TRAc6b2f894-0925-4c50-b59e-1ac1d03c8b7a</xmp:rhcc-translation-id>
         <xmp:brand-content-type>Icon</xmp:brand-content-type>
         <xmp:CreateDate>2023-12-08T17:36:55.646Z</xmp:CreateDate>
         <xmp:rhcc-effective-on-set-on-upload>true</xmp:rhcc-effective-on-set-on-upload>
         <xmp:rhcc-metadata-complete-uploader>pending</xmp:rhcc-metadata-complete-uploader>
         <xmp:rhcc-file-last-modified>2023-12-08T17:38:18.343Z</xmp:rhcc-file-last-modified>
         <xmp:rhcc-audience>rhcc-audience:internal</xmp:rhcc-audience>
         <xmp:rhcc-rights-restricted>no</xmp:rhcc-rights-restricted>
         <xmp:brand-content-subtype>Icon</xmp:brand-content-subtype>
         <xmp:rhcc-derivative-id>DERc6b2f894-0925-4c50-b59e-1ac1d03c8b7a</xmp:rhcc-derivative-id>
         <xmp:brand-logo-color>Black</xmp:brand-logo-color>
         <xmp:rhcc-notify-portal-subscribers-on-change>yes</xmp:rhcc-notify-portal-subscribers-on-change>
         <dc:format>image/svg+xml</dc:format>
         <dc:modified>2024-02-09T20:19:56.236Z</dc:modified>
         <dc:title>
            <rdf:Alt>
               <rdf:li xml:lang="x-default">Confidential icon - Black</rdf:li>
            </rdf:Alt>
         </dc:title>
         <dc:description>
            <rdf:Alt>
               <rdf:li xml:lang="x-default">share, view, information, restricted, permissions, NDA, secret, media and documents</rdf:li>
            </rdf:Alt>
         </dc:description>
         <cq:lastReplicationAction_scene7>Activate</cq:lastReplicationAction_scene7>
         <cq:lastReplicationAction_publish>Activate</cq:lastReplicationAction_publish>
         <cq:lastReplicated_publish>2024-02-09T21:57:31.470Z</cq:lastReplicated_publish>
         <cq:lastReplicatedBy>workflow-process-service</cq:lastReplicatedBy>
         <cq:lastReplicationAction>Activate</cq:lastReplicationAction>
         <cq:lastReplicatedBy_publish>workflow-process-service</cq:lastReplicatedBy_publish>
         <cq:isDelivered>true</cq:isDelivered>
         <cq:lastReplicated>2024-02-09T21:57:31.470Z</cq:lastReplicated>
         <cq:lastReplicatedBy_scene7>workflow-process-service</cq:lastReplicatedBy_scene7>
         <cq:lastReplicated_scene7>2024-02-09T21:57:31.470Z</cq:lastReplicated_scene7>
         <tiff:ImageLength>36</tiff:ImageLength>
         <tiff:ImageWidth>36</tiff:ImageWidth>
      </rdf:Description>
   </rdf:RDF>
</x:xmpmeta>
                                                                                                    
                                                                                                    
                                                                                                    
                                                                                                    
                                                                                                    
                                                                                                    
                                                                                                    
                                                                                                    
                                                                                                    
                                                                                                    
                                 
<?xpacket end="w"?></metadata>
<g>
    <path d="M32.52,17.65a17.6,17.6,0,0,0-20.58-6.59l-4.5-4.5C6.88,6,6,6.88,6.56,7.44l4.77,4.77h0L28.56,29.44a.62.62,0,0,0,.88-.88l-4.13-4.13a17.49,17.49,0,0,0,7.21-6.08A.64.64,0,0,0,32.52,17.65ZM20.79,19.9,16.1,15.21A3.38,3.38,0,0,1,20.79,19.9Zm3.58,3.58-2.7-2.69a4.61,4.61,0,0,0-6.46-6.46L12.92,12a16.35,16.35,0,0,1,18.32,6A16.29,16.29,0,0,1,24.37,23.48Z"/>
    <path d="M21,24.51A16.36,16.36,0,0,1,4.76,18a16.62,16.62,0,0,1,4.68-4.36.62.62,0,1,0-.66-1.06,17.91,17.91,0,0,0-5.3,5.07.64.64,0,0,0,0,.7,17.64,17.64,0,0,0,17.76,7.39A.63.63,0,0,0,21,24.51Z"/>
    <path d="M18.62,22a.61.61,0,0,0-.62-.62A3.39,3.39,0,0,1,14.62,18a.62.62,0,0,0-1.24,0A4.62,4.62,0,0,0,18,22.62.61.61,0,0,0,18.62,22Z"/>
  </g>
</svg>
